build/img/icq-bg.svg

<svg width="136" height="130" viewBox="0 0 136 130" fill="none" xmlns="http://www.w3.org/2000/svg">
<path fill-rule="evenodd" clip-rule="evenodd" d="M92.8347 69.9158C97.4183 65.8626 115.652 50.7027 122.174 46.7355C153.818 27.4876 168.73 72.7935 135.866 77.918C119.939 80.4016 104.012 81.506 95.6294 82.0573C92.9068 82.2378 90.9184 71.7173 92.8347 69.9158ZM65.7313 65.4321C63.4446 63.4022 46.0776 47.3614 39.1871 37.9055C30.9286 26.5753 33.5289 12.9701 44.4262 7.75788C57.8383 1.34191 70.2026 8.79272 72.8565 21.2107C74.6034 29.3801 77.7586 56.9316 78.166 61.3623C79.2893 73.5866 69.8773 69.1111 65.7313 65.4321ZM123.501 32.8C118.822 42.6699 102.984 57.8464 92.5564 67.4331C87.7917 71.8125 80.9499 67.0208 80.8208 65.2243C79.6321 48.806 77.4678 25.4867 79.7025 16.9331C83.3473 2.98357 99.4016 -3.21219 111.913 1.75667C123.666 6.42253 129.262 20.6469 123.501 32.8ZM38.5436 46.611C51.1309 55.9113 58.7356 62.1087 64.7526 67.7084C69.2372 71.8809 65.7283 77.2074 61.8187 77.6428C47.5683 79.229 33.0396 80.4029 24.6571 80.4029C4.08124 80.4029 -2.32807 66.253 1.88333 54.2556C7.332 38.733 24.7711 36.4349 38.5436 46.611ZM79.1434 134.835C79.7336 153.472 66.2577 163.63 52.7836 160.328C38.2784 156.773 32.5498 141.044 40.3036 127.591C45.5578 118.476 68.2461 93.0274 71.3895 89.509C72.7408 87.9956 76.3403 94.6103 76.6102 98.0145C76.9489 102.306 78.7243 121.589 79.1434 134.835ZM101.496 83.7139C112.114 83.9904 120.775 83.4937 134.468 84.2653C154.027 85.3696 162.409 100.271 155.145 114.068C149.487 124.819 133.07 129.523 118.261 116.829C103.154 103.879 96.606 96.9598 91.1573 91.4412C88.6073 88.8566 93.6637 83.5102 101.496 83.7139ZM89.9008 93.3726C94.7207 98.5468 105.129 109.379 113.791 119.864C121.882 129.658 124.311 144.512 111.556 150.495C100.379 155.739 87.8353 151.219 84.1721 132.834C80.8191 116.002 79.1292 101.885 78.8643 98.8912C78.6262 96.2172 88.4422 91.8063 89.9008 93.3726Z" fill="url(#paint0_linear)"/>
<path fill-rule="evenodd" clip-rule="evenodd" d="M64.8931 79.5746C57.8417 80.2567 33.4484 82.9705 23.8185 87.0254C-3.21524 98.4086 21.0406 133.303 40.5837 117.105C56.2306 104.134 68.7206 89.6398 71.5992 85.6462C71.5992 85.6462 71.7064 79.5746 64.8931 79.5746Z" fill="url(#paint1_linear)"/>
<g filter="url(#filter0_d)">
<path d="M58.8732 88.6479C63.8508 99.6735 76.9511 104.637 88.1401 99.7331C99.3275 94.8304 104.362 81.9174 99.3895 70.8902C95.7146 62.7506 87.6103 57.9142 79.1188 57.9142C76.1078 57.9142 73.0481 58.5218 70.1243 59.8034C58.9319 64.706 53.899 77.6224 58.8732 88.6479Z" fill="black"/>
</g>
<path d="M58.8732 88.6479C63.8508 99.6735 76.9511 104.637 88.1401 99.7331C99.3275 94.8304 104.362 81.9174 99.3895 70.8902C95.7146 62.7506 87.6103 57.9142 79.1188 57.9142C76.1078 57.9142 73.0481 58.5218 70.1243 59.8034C58.9319 64.706 53.899 77.6224 58.8732 88.6479Z" fill="url(#paint2_linear)"/>
<defs>
<filter id="filter0_d" x="47.9551" y="52.9142" width="62.3514" height="61.7099" filterUnits="userSpaceOnUse" color-interpolation-filters="sRGB">
<feFlood flood-opacity="0" result="BackgroundImageFix"/>
<feColorMatrix in="SourceAlpha" type="matrix" values="0 0 0 0 0 0 0 0 0 0 0 0 0 0 0 0 0 0 127 0"/>
<feOffset dy="4"/>
<feGaussianBlur stdDeviation="4.5"/>
<feColorMatrix type="matrix" values="0 0 0 0 0.247059 0 0 0 0 0.227451 0 0 0 0 0.0117647 0 0 0 0.08 0"/>
<feBlend mode="normal" in2="BackgroundImageFix" result="effect1_dropShadow"/>
<feBlend mode="normal" in="SourceGraphic" in2="effect1_dropShadow" result="shape"/>
</filter>
<linearGradient id="paint0_linear" x1="74.3965" y1="-11.6862" x2="74.3965" y2="160.945" gradientUnits="userSpaceOnUse">
<stop stop-color="#59CF32"/>
<stop offset="1" stop-color="#19A260"/>
</linearGradient>
<linearGradient id="paint1_linear" x1="8.23247" y1="107.476" x2="67.0361" y2="76.1742" gradientUnits="userSpaceOnUse">
<stop stop-color="#D32C3E"/>
<stop offset="1" stop-color="#DF5549"/>
</linearGradient>
<linearGradient id="paint2_linear" x1="79.1308" y1="57.9142" x2="79.1308" y2="101.624" gradientUnits="userSpaceOnUse">
<stop stop-color="#F5FD38"/>
<stop offset="1" stop-color="#FFD900"/>
</linearGradient>
</defs>
</svg>

<svg width="136" height="130" fill="none" xmlns="http://www.w3.org/2000/svg"><path fill-rule="evenodd" clip-rule="evenodd" d="M92.835 69.916c4.583-4.053 22.817-19.213 29.339-23.18 31.644-19.248 46.556 26.057 13.692 31.182-15.927 2.484-31.854 3.588-40.237 4.14-2.722.18-4.71-10.34-2.794-12.142zM65.73 65.432c-2.286-2.03-19.653-18.07-26.544-27.526-8.258-11.33-5.658-24.936 5.24-30.148 13.411-6.416 25.776 1.035 28.43 13.453 1.746 8.17 4.902 35.72 5.309 40.151 1.123 12.225-8.289 7.75-12.435 4.07zM123.5 32.8c-4.679 9.87-20.517 25.046-30.945 34.633-4.764 4.38-11.606-.412-11.735-2.209-1.189-16.418-3.353-39.737-1.118-48.29 3.644-13.95 19.699-20.146 32.21-15.177 11.753 4.666 17.349 18.89 11.588 31.043zM38.544 46.611c12.587 9.3 20.192 15.498 26.209 21.097 4.484 4.173.975 9.5-2.934 9.935-14.25 1.586-28.78 2.76-37.162 2.76-20.576 0-26.985-14.15-22.774-26.147 5.449-15.523 22.888-17.821 36.66-7.645zm40.6 88.224c.59 18.637-12.886 28.795-26.36 25.493-14.506-3.555-20.234-19.284-12.48-32.737 5.254-9.115 27.942-34.564 31.085-38.082 1.352-1.513 4.951 5.101 5.221 8.505.339 4.292 2.114 23.575 2.533 36.821zm22.352-51.121c10.618.276 19.279-.22 32.972.551 19.559 1.105 27.941 16.006 20.677 29.803-5.658 10.751-22.075 15.455-36.884 2.761-15.107-12.95-21.655-19.87-27.104-25.388-2.55-2.584 2.507-7.93 10.339-7.727zm-11.595 9.659c4.82 5.174 15.228 16.006 23.89 26.491 8.091 9.794 10.52 24.648-2.235 30.631-11.177 5.244-23.72.724-27.384-17.661-3.353-16.832-5.043-30.949-5.308-33.943-.238-2.674 9.578-7.085 11.037-5.518z" fill="url(#paint0_linear)"/><path fill-rule="evenodd" clip-rule="evenodd" d="M64.893 79.575c-7.051.682-31.445 3.395-41.075 7.45-27.033 11.384-2.777 46.278 16.766 30.08C56.23 104.134 68.72 89.64 71.599 85.646c0 0 .107-6.071-6.706-6.071z" fill="url(#paint1_linear)"/><g filter="url(#filter0_d)"><path d="M58.873 88.648c4.978 11.026 18.078 15.989 29.267 11.085 11.188-4.903 16.222-17.816 11.25-28.843-3.675-8.14-11.78-12.976-20.271-12.976-3.011 0-6.07.608-8.995 1.89-11.192 4.902-16.225 17.818-11.25 28.844z" fill="#000"/></g><path d="M58.873 88.648c4.978 11.026 18.078 15.989 29.267 11.085 11.188-4.903 16.222-17.816 11.25-28.843-3.675-8.14-11.78-12.976-20.271-12.976-3.011 0-6.07.608-8.995 1.89-11.192 4.902-16.225 17.818-11.25 28.844z" fill="url(#paint2_linear)"/><defs><linearGradient id="paint0_linear" x1="74.397" y1="-11.686" x2="74.397" y2="160.945" gradientUnits="userSpaceOnUse"><stop stop-color="#59CF32"/><stop offset="1" stop-color="#19A260"/></linearGradient><linearGradient id="paint1_linear" x1="8.232" y1="107.476" x2="67.036" y2="76.174" gradientUnits="userSpaceOnUse"><stop stop-color="#D32C3E"/><stop offset="1" stop-color="#DF5549"/></linearGradient><linearGradient id="paint2_linear" x1="79.131" y1="57.914" x2="79.131" y2="101.624" gradientUnits="userSpaceOnUse"><stop stop-color="#F5FD38"/><stop offset="1" stop-color="#FFD900"/></linearGradient><filter id="filter0_d" x="47.955" y="52.914" width="62.351" height="61.71" filterUnits="userSpaceOnUse" color-interpolation-filters="sRGB"><feFlood flood-opacity="0" result="BackgroundImageFix"/><feColorMatrix in="SourceAlpha" values="0 0 0 0 0 0 0 0 0 0 0 0 0 0 0 0 0 0 127 0"/><feOffset dy="4"/><feGaussianBlur stdDeviation="4.5"/><feColorMatrix values="0 0 0 0 0.247059 0 0 0 0 0.227451 0 0 0 0 0.0117647 0 0 0 0.08 0"/><feBlend in2="BackgroundImageFix" result="effect1_dropShadow"/><feBlend in="SourceGraphic" in2="effect1_dropShadow" result="shape"/></filter></defs></svg>
